X: 30442
T: Old Walls Of Liscarroll, The
R: jig
M: 6/8
K: Dmixolydian
AGA D3|AGE Adc|AGE cEE|GEE DEG|
AGA D3|AGE Adc|AGE cGE|DED DEG:|
Adc ABc|ded dcA|GEE cEE|GEE DEG|
Adc ABc|ded dcA|GEE cGE|DED DEG|
Adc ABc|def dcA|GEE cEE|GEE DEG|
AGA D3|AGE Adc|AGE cGE|DED DEG||

